X:1
T:Title
%%score { ( 1 3 ) | ( 2 4 ) }
L:1/8
Q:1/4=114
M:4/4
K:Bb
V:1 treble nm="Grand Piano"
V:3 treble 
V:2 bass 
V:4 bass 
V:1
 B3 F GABc | d2 B2 D2 F2 | [DG]2 [DF]2 [DG]2 D2 | z2 z D z =EFG | A3 F AB[Ac]d | %5
w: Chas.~H.~Gabriel * * * * *|||||
 [ce]2 [Bd]2 [Ac]2 z B, | A2 G2 F2 E2 | D6 z2 | B3 F GABc | d2 B2 [B,F]2 [B,FG]2 | %10
w: |||||
 [CFA]2 [C=EG]2 [CFA]2 [CGB]2 | [CAc]6 z2 | [G=e]2 [Bd]2 [Ac]2 [GB]2 | [Bd]2 [CAc]2 [CGB]2 [CFA]2 | %14
w: ||||
 [C=Ec]2 [DEB]2 [CEA]2 [B,EG]2 | z2 .=E2 GABc | [Fd]3 [=E_d] [F=d]2 _d2 | d6 z2 | %18
w: ||||
 [DF]2 [DG]2 [DA]2 [FB]2 | [Fe]3 A A4 | c3 =B c2 B2 | c6 z2 | A2 G2 F2 G2 | [DF]3 [CE] [B,D]4 | %24
w: ||||||
 [Fd]3 [=E_d] [F=d]2 [E_d]2 | [Fd]2 [DB]2 [EA]2 [FB]2 | [Ge]3 [Ge] [GB]2 [Gc]2 | [^Fd]6 z2 | %28
w: ||||
 d3 G [Ge]2 [Gd]2 | [Gc]2 B2 A2 G2 | F2 d2 d2 c2 | [DB]6 z2 |] %32
w: ||||
V:2
 B,3 F, G,A,B,C | D2 B,2 [F,B,]2 [D,B,]2 | [B,,B,]2 [B,,F,]2 [B,,B,]2 [=B,,F,_A,]2 | [C,F,A,]6 z2 | %4
 [F,CF]3 [F,A,] [F,C]-[F,CG] z[K:treble] B | F,2 F,2 z G, .[F,A,]2 | %6
 [F,CF]2 [F,A,E]2 [F,B,D]2 [F,C]2 | [B,,F,B,]6 z2 | B,3 F, G,A,B,C | D2 B,2 D,2 _D,2 | %10
 C,2 B,2 A,2 G,2 | F,6 z2 | [C,C]2 [C,C]2 [C,C]2 [C,C]2 | [F,C]2 F,2 F,2 F,2 | C,2 C,2 C,2 C,2 | %15
 [F,A,]6 z2 | [B,,B,]3 [B,,B,] [B,,B,]2[K:treble] =E2 | F6[K:bass] .B,2 | %18
 [B,,B,]2 [B,,B,]2 [B,,F,]2 [D,B,]2 | [C,A,]3 [F,CE] [F,CE]4 | [F,A,E]3 [F,_A,D] [F,=A,E]2 D2 | %21
 E6 .A,2 | [F,CE]2 [F,B,E]2 [F,A,E]2 [F,A,E]2 | [B,,B,]3 [B,,F,] [B,,F,]4 | %24
 [B,,B,]3 [B,,B,] [B,,B,]2 [B,,B,]2 | [B,,B,]2 [B,,F,]2 [C,F,]2 [D,B,]2 | %26
 [E,B,]3 [E,B,] [E,B,]2 [E,G,]2 | [D,A,]6 z2 | [G,=B,F]3 [G,B,][K:bass] [C,C]2 [D,B,]2 | %29
 [E,C]2 [E,G,E]2 [=E,G,_D]2 [E,B,D]2 | [F,B,D]2 [F,B,F]2 [F,B,F]2 [F,E]2 | [B,,F,]6 z2 |] %32
V:3
 x8 | x8 | x8 | E4 E2 z2 | x8 | z4 z2 [GB]2 | x8 | x8 | x8 | x8 | x8 | x8 | x8 | x8 | x8 | %15
 F3 F- F2 z2 | x8 | z2 B,2 B,2 DE | x8 | x8 | x8 | z2 A,2 A,2 FG | x8 | x8 | x8 | x8 | x8 | x8 | %28
 x8 | x8 | x8 | x8 |] %32
V:4
 x8 | x8 | x8 | x8 | z4 .F2 [F,C]2[K:treble] | z4 F,2 z2 | x8 | x8 | x8 | x8 | x8 | x8 | x8 | x8 | %14
 x8 | x8 | x6[K:treble] x2 | z2[K:bass] B,,2 B,,2 [B,,F,]-[B,,F,C] | x8 | x8 | x8 | %21
 z2 F,2 F,2 [F,E]-[F,B,E] | x8 | x8 | x8 | x8 | x8 | x8 | x4[K:bass] x4 | x8 | x8 | x8 |] %32

